src/3-context/security-line.svg

<svg width="1300" height="1000" fill="none" xmlns="http://www.w3.org/2000/svg"><path fill-rule="evenodd" clip-rule="evenodd" d="M234.5 540a3.5 3.5 0 0 0-3.5 3.5v12.008c-54.459 19.46-136.793 30.272-201.8 30.272a656.22 656.22 0 0 1-29.2-.674v5.556c10.016.418 19.796.628 29.2.628 64.643 0 147.057-9.957 201.8-28.8v15.018c-54.459 19.46-136.793 30.272-201.8 30.272a656.22 656.22 0 0 1-29.2-.674v5.556c10.016.418 19.796.628 29.2.628 64.643 0 147.057-9.957 201.8-28.8V900h7V584.348c54.74 18.945 137.396 28.942 202.2 28.942 64.643 0 147.057-9.957 201.8-28.8V900h7V543.5a3.5 3.5 0 1 0-7 0v12.008c-54.459 19.46-136.794 30.272-201.8 30.272-65.17 0-147.735-10.866-202.2-30.419V543.5a3.5 3.5 0 0 0-3.5-3.5Zm205.7 67.78c-65.17 0-147.735-10.866-202.2-30.419v-15.013c54.74 18.945 137.396 28.942 202.2 28.942 64.643 0 147.057-9.957 201.8-28.8v15.018c-54.459 19.46-136.794 30.272-201.8 30.272Z" fill="#000"/></svg>

<svg width="1300" height="1000" viewBox="0 0 1300 1000" fill="none" xmlns="http://www.w3.org/2000/svg">
<path fill-rule="evenodd" clip-rule="evenodd" d="M234.5 540C232.567 540 231 541.567 231 543.5V555.508C176.541 574.968 94.2065 585.78 29.2 585.78C19.7841 585.78 10.005 585.553 0 585.106V590.662C10.016 591.08 19.796 591.29 29.2 591.29C93.8426 591.29 176.257 581.333 231 562.49V577.508C176.541 596.968 94.2065 607.78 29.2 607.78C19.7841 607.78 10.005 607.553 0 607.106V612.662C10.016 613.08 19.796 613.29 29.2 613.29C93.8426 613.29 176.257 603.333 231 584.49V900H238V584.348C292.74 603.293 375.396 613.29 440.2 613.29C504.843 613.29 587.257 603.333 642 584.49V900H649V543.5C649 541.567 647.433 540 645.5 540C643.567 540 642 541.567 642 543.5V555.508C587.541 574.968 505.206 585.78 440.2 585.78C375.03 585.78 292.465 574.914 238 555.361V543.5C238 541.567 236.433 540 234.5 540ZM440.2 607.78C375.03 607.78 292.465 596.914 238 577.361V562.348C292.74 581.293 375.396 591.29 440.2 591.29C504.843 591.29 587.257 581.333 642 562.49V577.508C587.541 596.968 505.206 607.78 440.2 607.78Z" fill="black"/>
</svg>
